svg/map/live_location_line.svg

<?xml version="1.0" encoding="UTF-8"?>
<svg width="24px" height="24px" viewBox="0 0 24 24" version="1.1" xmlns="http://www.w3.org/2000/svg" xmlns:xlink="http://www.w3.org/1999/xlink">
    <title>live_location_line</title>
    <g id="页面-1" stroke="none" stroke-width="1" fill="none" fill-rule="evenodd">
        <g id="Map" transform="translate(-864.000000, 0.000000)">
            <g id="live_location_line" transform="translate(864.000000, 0.000000)">
                 <path d="M24,0 L24,24 L0,24 L0,0 L24,0 Z M12.5934901,23.257841 L12.5819402,23.2595131 L12.5108777,23.2950439 L12.4918791,23.2987469 L12.4918791,23.2987469 L12.4767152,23.2950439 L12.4056548,23.2595131 C12.3958229,23.2563662 12.3870493,23.2590235 12.3821421,23.2649074 L12.3780323,23.275831 L12.360941,23.7031097 L12.3658947,23.7234994 L12.3769048,23.7357139 L12.4804777,23.8096931 L12.4953491,23.8136134 L12.4953491,23.8136134 L12.5071152,23.8096931 L12.6106902,23.7357139 L12.6232938,23.7196733 L12.6232938,23.7196733 L12.6266527,23.7031097 L12.609561,23.275831 C12.6075724,23.2657013 12.6010112,23.2592993 12.5934901,23.257841 L12.5934901,23.257841 Z M12.8583906,23.1452862 L12.8445485,23.1473072 L12.6598443,23.2396597 L12.6498822,23.2499052 L12.6498822,23.2499052 L12.6471943,23.2611114 L12.6650943,23.6906389 L12.6699349,23.7034178 L12.6699349,23.7034178 L12.678386,23.7104931 L12.8793402,23.8032389 C12.8914285,23.8068999 12.9022333,23.8029875 12.9078286,23.7952264 L12.9118235,23.7811639 L12.8776777,23.1665331 C12.8752882,23.1545897 12.8674102,23.1470016 12.8583906,23.1452862 L12.8583906,23.1452862 Z M12.1430473,23.1473072 C12.1332178,23.1423925 12.1221763,23.1452606 12.1156365,23.1525954 L12.1099173,23.1665331 L12.0757714,23.7811639 C12.0751323,23.7926639 12.0828099,23.8018602 12.0926481,23.8045676 L12.108256,23.8032389 L12.3092106,23.7104931 L12.3186497,23.7024347 L12.3186497,23.7024347 L12.3225043,23.6906389 L12.340401,23.2611114 L12.337245,23.2485176 L12.337245,23.2485176 L12.3277531,23.2396597 L12.1430473,23.1473072 Z" id="MingCute" fill-rule="nonzero"></path>
                <path d="M3,5 C3,3.89543 3.89543,3 5,3 L7,3 C7.55228,3 8,3.44772 8,4 C8,4.55228 7.55228,5 7,5 L5,5 L5,7 C5,7.55228 4.55228,8 4,8 C3.44772,8 3,7.55228 3,7 L3,5 Z M3,19 C3,20.1046 3.89543,21 5,21 L7,21 C7.55228,21 8,20.5523 8,20 C8,19.4477 7.55228,19 7,19 L5,19 L5,17 C5,16.4477 4.55228,16 4,16 C3.44772,16 3,16.4477 3,17 L3,19 Z M19,3 C20.1046,3 21,3.89543 21,5 L21,7 C21,7.55228 20.5523,8 20,8 C19.4477,8 19,7.55228 19,7 L19,5 L17,5 C16.4477,5 16,4.55228 16,4 C16,3.44772 16.4477,3 17,3 L19,3 Z M21,19 C21,20.1046 20.1046,21 19,21 L17,21 C16.4477,21 16,20.5523 16,20 C16,19.4477 16.4477,19 17,19 L19,19 L19,17 C19,16.4477 19.4477,16 20,16 C20.5523,16 21,16.4477 21,17 L21,19 Z M16.9546,8.35809 C17.1157,7.98225 17.0317,7.5462 16.7426,7.25706 C16.4534,6.96792 16.0174,6.88395 15.6415,7.04502 L5.74204,11.2877 C5.34442,11.4581 5.10145,11.8648 5.13993,12.2957 C5.1784,12.7266 5.48958,13.0839 5.9111,13.1812 L9.8983,14.1013 L10.8184,18.0885 C10.9157,18.51 11.273,18.8212 11.7039,18.8597 C12.1348,18.8982 12.5416,18.6552 12.712,18.2576 L16.9546,8.35809 Z M10.957,12.2931 L9.34258,11.9205 L14.1315,9.86811 L12.0791,14.6571 L11.7065,13.0426 C11.6206,12.67 11.3296,12.3791 10.957,12.2931 Z" id="形状" fill="#09244B"></path>
            </g>
        </g>
    </g>
</svg>

<svg xmlns="http://www.w3.org/2000/svg" width="24" height="24"><g fill="none" fill-rule="evenodd"><path d="M24 0v24H0V0h24ZM12.593 23.258l-.011.002-.071.035-.02.004-.014-.004-.071-.035c-.01-.004-.019-.001-.024.005l-.004.01-.017.428.005.02.01.013.104.074.015.004.012-.004.104-.074.012-.016.004-.017-.017-.427c-.002-.01-.009-.017-.017-.018Zm.265-.113-.013.002-.185.093-.01.01-.003.011.018.43.005.012.008.007.201.093c.012.004.023 0 .029-.008l.004-.014-.034-.614c-.003-.012-.01-.02-.02-.022Zm-.715.002a.023.023 0 0 0-.027.006l-.006.014-.034.614c0 .012.007.02.017.024l.015-.002.201-.093.01-.008.004-.011.017-.43-.003-.012-.01-.01-.184-.092Z"/><path fill="#09244B" d="M3 5a2 2 0 0 1 2-2h2a1 1 0 0 1 0 2H5v2a1 1 0 0 1-2 0V5Zm0 14a2 2 0 0 0 2 2h2a1 1 0 1 0 0-2H5v-2a1 1 0 1 0-2 0v2ZM19 3a2 2 0 0 1 2 2v2a1 1 0 1 1-2 0V5h-2a1 1 0 1 1 0-2h2Zm2 16a2 2 0 0 1-2 2h-2a1 1 0 1 1 0-2h2v-2a1 1 0 1 1 2 0v2ZM16.955 8.358a1 1 0 0 0-1.313-1.313l-9.9 4.243a1 1 0 0 0 .17 1.893l3.986.92.92 3.987a1 1 0 0 0 1.894.17l4.243-9.9Zm-5.998 3.935-1.614-.372 4.789-2.053-2.053 4.79-.373-1.615a1 1 0 0 0-.749-.75Z"/></g></svg>
